.icons/oomox-ad/64x64/apps/komodo.svg

<svg xmlns="http://www.w3.org/2000/svg" width="64" height="64" version="1">
 <path style="opacity:0.2" d="m 7.9999996,43.686828 0,1.999987 A 2.559983,2.6241825 0 0 0 9.2812311,47.9602 L 30.719089,60.647716 a 2.559983,2.6241825 0 0 0 2.562382,0 L 54.719329,47.9602 a 2.559983,2.6241825 0 0 0 1.279991,-2.273985 l 0,-1.999987 a 2.559983,2.6241825 0 0 1 -1.281231,2.273385 L 33.280231,58.647129 a 2.559983,2.6241825 0 0 1 -2.562382,0 L 9.2819911,45.959213 A 2.559983,2.6241825 0 0 1 7.9999996,43.685228 Z"/>
 <path style="fill:#fecd38" d="M 32.05984,4.0016989 A 2.559983,2.6241825 0 0 0 30.719929,4.3541366 L 9.2800711,17.042252 a 2.559983,2.6241825 0 0 0 -1.2799915,2.271585 l 0,25.377831 a 2.559983,2.6241825 0 0 0 1.2794315,2.271585 L 30.721369,59.651169 a 2.559983,2.6241825 0 0 0 2.558782,0 L 54.718009,46.961253 A 2.559983,2.6241825 0 0 0 56,44.691268 L 56,19.313437 A 2.559983,2.6241825 0 0 0 54.718009,17.042652 L 33.280151,4.3547366 A 2.559983,2.6241825 0 0 0 32.0612,4.0022989 Z"/>
 <path style="fill:#3f3f3f" d="m 23.781895,47.854807 c -0.08,-0.07984 -0.145459,-0.373797 -0.145459,-0.653235 0,-0.622896 -0.339318,-0.660516 -0.654636,-0.07258 -0.373278,0.695995 -0.678956,0.504897 -0.609516,-0.381037 0.04994,-0.637356 -0.008,-0.798055 -0.263318,-0.732335 -1.458631,0.375217 -1.46731,0.362837 -0.490977,-0.698976 1.043253,-1.134552 1.233592,-1.818468 0.436437,-1.568109 -0.270038,0.08482 -1.055113,0.205958 -1.744588,0.269238 -2.123386,0.194839 -4.310772,-1.183472 -4.310772,-2.716182 0,-0.646576 1.128993,-1.55221 2.752982,-2.208385 0.826135,-0.333798 1.52723,-0.744435 1.55803,-0.912514 0.03088,-0.168099 -0.291658,-0.529137 -0.716555,-0.802355 -0.972394,-0.625996 -1.51779,-1.50399 -2.093587,-3.373978 -0.663395,-2.151985 -0.516596,-5.871961 0.328398,-8.321944 2.929781,-8.496144 11.447724,-12.01952 19.483671,-8.061547 5.143765,2.533184 8.860541,6.544957 9.670535,10.437931 0.219299,1.054033 0.197879,1.280131 -0.193738,2.046186 -0.515097,1.007494 -1.665969,2.217986 -2.108786,2.217986 -0.169859,0 -0.577616,-0.318438 -0.906114,-0.707656 -0.859995,-1.018993 -4.740169,-4.853167 -6.357358,-6.281958 l -1.380311,-1.219552 0.153219,-1.223632 c 0.146619,-1.170852 0.128819,-1.234731 -0.411997,-1.48061 -0.822775,-0.374077 -1.970347,-0.007 -2.066386,0.660976 -0.0544,0.378337 0.227118,0.814854 1.083592,1.680229 l 1.157073,1.169112 -1.301812,0.003 c -2.363384,0.0056 -2.819981,0.379037 -1.656809,1.355691 0.861435,0.723275 1.161033,1.358971 1.085473,2.302984 l -0.06412,0.802015 1.030673,-0.0528 c 0.791994,-0.04058 1.030673,0.02248 1.030673,0.272179 0,0.178738 -0.09818,0.324978 -0.218219,0.324978 -0.362557,0 -0.244838,0.615915 0.163659,0.856154 0.296518,0.174399 0.319258,0.265858 0.10172,0.409277 -0.154099,0.101579 -0.217239,0.348338 -0.140319,0.548336 0.211298,0.549437 -0.222659,0.450617 -1.912548,-0.435477 -1.39459,-0.731255 -1.569429,-0.901654 -2.059186,-2.006786 -0.867554,-1.957467 -1.608589,-2.480584 -1.608589,-1.135513 0,0.333058 -0.206779,1.380591 -0.459517,2.327785 -0.804715,3.01618 -0.899514,2.701982 0.815954,2.703382 1.719029,0.0013 2.961781,0.290238 3.372178,0.783835 0.300778,0.361637 0.336938,1.353091 0.09612,2.634182 -0.139819,0.743635 -0.124419,0.767415 0.410437,0.633456 0.521437,-0.130599 0.547597,-0.09874 0.424178,0.516996 -0.1269,0.633176 -0.10378,0.656156 0.659495,0.656156 0.435077,0 0.791035,0.09798 0.791035,0.217739 0,0.119759 -0.07944,0.217738 -0.176499,0.217738 -0.09712,0 -0.365817,0.138139 -0.597176,0.306938 -0.412817,0.301198 -0.412957,0.315458 -0.008,0.762095 0.471657,0.520057 0.416757,0.539676 -1.291431,0.461277 -1.289372,-0.05918 -1.55995,-0.238878 -1.753089,-1.164312 -0.225098,-1.078593 -0.724155,-1.752429 -1.079752,-1.457931 -0.674436,0.558537 0.631515,2.860781 2.254985,3.975374 2.294384,1.575129 4.911567,1.944147 7.320551,1.032153 1.637769,-0.620056 4.014973,-2.92118 5.327165,-5.156766 1.46231,-2.491383 1.782068,-2.447583 1.250311,0.171019 -0.884194,4.354371 -3.882974,7.62855 -8.284145,9.04554 -1.41219,0.454657 -2.196785,0.568256 -3.944973,0.571136 -3.643576,0.006 -5.728562,-1.016073 -9.10254,-4.46217 -2.121986,-2.163986 -2.753982,-2.331985 -1.667989,-0.437997 l 0.696356,1.214492 -0.704176,2.143786 c -0.387297,1.179052 -0.730515,2.143785 -0.762695,2.143785 -0.03222,0 -0.123999,-0.06534 -0.203998,-0.145159 z m 0.968373,-11.745522 c -1.892827,-3.776374 -2.313984,-5.297964 -2.313984,-8.359344 0,-2.296385 0.04856,-2.595783 0.585576,-3.611376 1.625229,-3.07338 5.098966,-4.869168 9.434137,-4.877368 2.032986,-0.0038 4.334171,0.353858 5.254965,0.816695 1.134052,0.570076 2.751382,2.050786 4.403971,4.032173 1.933907,2.318585 2.090986,2.760382 0.674715,1.898748 -0.392957,-0.239079 -0.927374,-0.435038 -1.187592,-0.435478 -0.837974,-0.0015 -1.148552,-0.244458 -1.292771,-1.011633 -0.10352,-0.550756 -0.407218,-0.953713 -1.138773,-1.51111 -1.652289,-1.258891 -2.281185,-0.692555 -1.139952,1.026633 0.962833,1.450511 6.267558,6.547957 6.725755,6.462757 0.666276,-0.123839 1.175892,-1.45719 1.067553,-2.792981 -0.183399,-2.260585 -1.778368,-4.609969 -4.272772,-6.293958 -2.276384,-1.53677 -6.592356,-3.498977 -8.537543,-3.881374 -6.197359,-1.218332 -12.246318,2.636182 -13.135912,8.370344 -0.532737,3.434377 1.370231,7.974947 4.933567,11.771922 0.591296,0.630056 1.111412,1.109272 1.155852,1.064953 0.04446,-0.04434 -0.503197,-1.245732 -1.216932,-2.669783 z"/>
 <path style="opacity:0.2;fill:#ffffff" d="M 32.056641 4.0019531 A 2.559983 2.6241825 0 0 0 30.71875 4.3535156 L 9.28125 17.044922 A 2.559983 2.6241825 0 0 0 8 19.3125 L 8 20.3125 A 2.559983 2.6241825 0 0 1 9.28125 18.044922 L 30.71875 5.3535156 A 2.559983 2.6241825 0 0 1 32.056641 5.0019531 L 32.058594 5.0019531 A 2.559983 2.6241825 0 0 1 33.28125 5.3535156 L 54.716797 18.044922 A 2.559983 2.6241825 0 0 1 55.998047 20.3125 L 55.998047 19.3125 A 2.559983 2.6241825 0 0 0 54.716797 17.044922 L 33.28125 4.3535156 A 2.559983 2.6241825 0 0 0 32.058594 4.0019531 L 32.056641 4.0019531 z"/>
</svg>

<svg xmlns="http://www.w3.org/2000/svg" width="64" height="64" version="1">
 <path style="opacity:0.2" d="M 8,43.687 V 45.687 A 2.56,2.6242 0 0 0 9.2812,47.96 L 30.719,60.648 A 2.56,2.6242 0 0 0 33.281,60.648 L 54.719,47.96 A 2.56,2.6242 0 0 0 55.999,45.686 V 43.686 A 2.56,2.6242 0 0 1 54.718,45.96 L 33.28,58.647 A 2.56,2.6242 0 0 1 30.718,58.647 L 9.282,45.959 A 2.56,2.6242 0 0 1 8,43.685 Z"/>
 <path style="fill:#f9a825" d="M 32.06,4.0017 A 2.56,2.6242 0 0 0 30.72,4.3541 L 9.2801,17.042 A 2.56,2.6242 0 0 0 8.0001,19.314 V 44.692 A 2.56,2.6242 0 0 0 9.2795,46.963 L 30.721,59.651 A 2.56,2.6242 0 0 0 33.28,59.651 L 54.718,46.961 A 2.56,2.6242 0 0 0 56,44.691 V 19.313 A 2.56,2.6242 0 0 0 54.718,17.043 L 33.28,4.3547 A 2.56,2.6242 0 0 0 32.061,4.0023 Z"/>
 <path style="opacity:0.2" d="M 23.782,48.855 C 23.702,48.775 23.636,48.481 23.636,48.202 23.636,47.579 23.297,47.541 22.982,48.129 22.609,48.825 22.303,48.634 22.372,47.748 22.422,47.111 22.364,46.95 22.109,47.016 20.65,47.391 20.642,47.378 21.618,46.317 22.661,45.182 22.852,44.498 22.054,44.749 21.784,44.833 20.999,44.954 20.31,45.018 18.186,45.213 15.999,43.834 15.999,42.302 15.999,41.655 17.128,40.749 18.752,40.093 19.578,39.759 20.279,39.349 20.31,39.181 20.341,39.013 20.018,38.652 19.594,38.378 18.621,37.752 18.076,36.874 17.5,35.004 16.837,32.852 16.983,29.132 17.828,26.682 20.758,18.186 29.276,14.663 37.312,18.621 42.456,21.154 46.173,25.166 46.983,29.059 47.202,30.113 47.18,30.339 46.789,31.105 46.274,32.112 45.123,33.323 44.68,33.323 44.51,33.323 44.102,33.005 43.774,32.615 42.914,31.596 39.034,27.762 37.417,26.333 L 36.036,25.114 36.189,23.89 C 36.336,22.719 36.318,22.655 35.777,22.41 34.955,22.035 33.807,22.403 33.711,23.071 33.657,23.449 33.938,23.885 34.795,24.751 L 35.952,25.92 34.65,25.923 C 32.287,25.928 31.83,26.302 32.993,27.279 33.855,28.002 34.154,28.638 34.079,29.582 L 34.014,30.384 35.045,30.331 C 35.837,30.29 36.076,30.353 36.076,30.603 36.076,30.782 35.978,30.928 35.858,30.928 35.495,30.928 35.613,31.544 36.021,31.784 36.318,31.958 36.341,32.05 36.123,32.193 35.969,32.295 35.906,32.542 35.983,32.742 36.194,33.291 35.76,33.192 34.07,32.306 32.676,31.575 32.501,31.405 32.011,30.299 31.143,28.342 30.402,27.819 30.402,29.164 30.402,29.497 30.196,30.545 29.943,31.492 29.138,34.508 29.043,34.194 30.759,34.195 32.478,34.196 33.721,34.485 34.131,34.979 34.432,35.341 34.468,36.332 34.227,37.613 34.087,38.357 34.103,38.381 34.638,38.247 35.159,38.116 35.185,38.148 35.062,38.764 34.935,39.397 34.958,39.42 35.721,39.42 36.156,39.42 36.512,39.518 36.512,39.637 36.512,39.757 36.433,39.855 36.336,39.855 36.239,39.855 35.97,39.993 35.739,40.162 35.326,40.463 35.326,40.478 35.731,40.924 36.202,41.444 36.147,41.464 34.439,41.385 33.15,41.326 32.879,41.147 32.686,40.221 32.461,39.143 31.962,38.469 31.606,38.763 30.932,39.322 32.238,41.624 33.861,42.739 36.156,44.314 38.773,44.683 41.182,43.771 42.82,43.151 45.197,40.85 46.509,38.614 47.971,36.123 48.291,36.166 47.759,38.785 46.875,43.139 43.876,46.414 39.475,47.831 38.063,48.285 37.278,48.399 35.53,48.402 31.887,48.408 29.802,47.386 26.428,43.94 24.306,41.776 23.674,41.608 24.76,43.502 L 25.456,44.716 24.752,46.86 C 24.365,48.039 24.021,49.004 23.989,49.004 23.957,49.004 23.865,48.938 23.785,48.858 Z M 24.75,37.109 C 22.857,33.333 22.436,31.811 22.436,28.75 22.436,26.454 22.485,26.154 23.022,25.139 24.647,22.065 28.121,20.269 32.456,20.261 34.489,20.257 36.79,20.615 37.711,21.078 38.845,21.648 40.462,23.129 42.115,25.11 44.049,27.429 44.206,27.87 42.79,27.009 42.397,26.77 41.862,26.574 41.602,26.573 40.764,26.572 40.454,26.329 40.309,25.562 40.206,25.011 39.902,24.608 39.171,24.051 37.518,22.792 36.889,23.358 38.031,25.077 38.993,26.528 44.298,31.625 44.756,31.54 45.423,31.416 45.932,30.083 45.824,28.747 45.64,26.486 44.045,24.137 41.551,22.453 39.275,20.916 34.959,18.954 33.014,18.572 26.816,17.353 20.767,21.208 19.878,26.942 19.345,30.376 21.248,34.917 24.811,38.714 25.403,39.344 25.923,39.823 25.967,39.779 26.012,39.735 25.464,38.533 24.75,37.109 Z"/>
 <path style="fill:#ffffff" d="M 23.782,47.855 C 23.702,47.775 23.636,47.481 23.636,47.202 23.636,46.579 23.297,46.541 22.982,47.129 22.609,47.825 22.303,47.634 22.372,46.748 22.422,46.111 22.364,45.95 22.109,46.016 20.65,46.391 20.642,46.378 21.618,45.317 22.661,44.182 22.852,43.498 22.054,43.749 21.784,43.833 20.999,43.954 20.31,44.018 18.186,44.213 15.999,42.834 15.999,41.302 15.999,40.655 17.128,39.749 18.752,39.093 19.578,38.759 20.279,38.349 20.31,38.181 20.341,38.013 20.018,37.652 19.594,37.378 18.621,36.752 18.076,35.874 17.5,34.004 16.837,31.852 16.983,28.132 17.828,25.682 20.758,17.186 29.276,13.663 37.312,17.621 42.456,20.154 46.173,24.166 46.983,28.059 47.202,29.113 47.18,29.339 46.789,30.105 46.274,31.112 45.123,32.323 44.68,32.323 44.51,32.323 44.102,32.005 43.774,31.615 42.914,30.596 39.034,26.762 37.417,25.333 L 36.036,24.114 36.189,22.89 C 36.336,21.719 36.318,21.655 35.777,21.41 34.955,21.035 33.807,21.403 33.711,22.071 33.657,22.449 33.938,22.885 34.795,23.751 L 35.952,24.92 34.65,24.923 C 32.287,24.928 31.83,25.302 32.993,26.279 33.855,27.002 34.154,27.638 34.079,28.582 L 34.014,29.384 35.045,29.331 C 35.837,29.29 36.076,29.353 36.076,29.603 36.076,29.782 35.978,29.928 35.858,29.928 35.495,29.928 35.613,30.544 36.021,30.784 36.318,30.958 36.341,31.05 36.123,31.193 35.969,31.295 35.906,31.542 35.983,31.742 36.194,32.291 35.76,32.192 34.07,31.306 32.676,30.575 32.501,30.405 32.011,29.299 31.143,27.342 30.402,26.819 30.402,28.164 30.402,28.497 30.196,29.545 29.943,30.492 29.138,33.508 29.043,33.194 30.759,33.195 32.478,33.196 33.721,33.485 34.131,33.979 34.432,34.341 34.468,35.332 34.227,36.613 34.087,37.357 34.103,37.381 34.638,37.247 35.159,37.116 35.185,37.148 35.062,37.764 34.935,38.397 34.958,38.42 35.721,38.42 36.156,38.42 36.512,38.518 36.512,38.637 36.512,38.757 36.433,38.855 36.336,38.855 36.239,38.855 35.97,38.993 35.739,39.162 35.326,39.463 35.326,39.478 35.731,39.924 36.202,40.444 36.147,40.464 34.439,40.385 33.15,40.326 32.879,40.147 32.686,39.221 32.461,38.143 31.962,37.469 31.606,37.763 30.932,38.322 32.238,40.624 33.861,41.739 36.156,43.314 38.773,43.683 41.182,42.771 42.82,42.151 45.197,39.85 46.509,37.614 47.971,35.123 48.291,35.166 47.759,37.785 46.875,42.139 43.876,45.414 39.475,46.831 38.063,47.285 37.278,47.399 35.53,47.402 31.887,47.408 29.802,46.386 26.428,42.94 24.306,40.776 23.674,40.608 24.76,42.502 L 25.456,43.716 24.752,45.86 C 24.365,47.039 24.021,48.004 23.989,48.004 23.957,48.004 23.865,47.938 23.785,47.858 Z M 24.75,36.109 C 22.857,32.333 22.436,30.811 22.436,27.75 22.436,25.454 22.485,25.154 23.022,24.139 24.647,21.065 28.121,19.269 32.456,19.261 34.489,19.257 36.79,19.615 37.711,20.078 38.845,20.648 40.462,22.129 42.115,24.11 44.049,26.429 44.206,26.87 42.79,26.009 42.397,25.77 41.862,25.574 41.602,25.573 40.764,25.572 40.454,25.329 40.309,24.562 40.206,24.011 39.902,23.608 39.171,23.051 37.518,21.792 36.889,22.358 38.031,24.077 38.993,25.528 44.298,30.625 44.756,30.54 45.423,30.416 45.932,29.083 45.824,27.747 45.64,25.486 44.045,23.137 41.551,21.453 39.275,19.916 34.959,17.954 33.014,17.572 26.816,16.353 20.767,20.208 19.878,25.942 19.345,29.376 21.248,33.917 24.811,37.714 25.403,38.344 25.923,38.823 25.967,38.779 26.012,38.735 25.464,37.533 24.75,36.109 Z"/>
 <path style="opacity:0.2;fill:#ffffff" d="M 32.057,4.002 A 2.56,2.6242 0 0 0 30.719,4.3535 L 9.2812,17.045 A 2.56,2.6242 0 0 0 8,19.312 V 20.312 A 2.56,2.6242 0 0 1 9.2812,18.045 L 30.719,5.3535 A 2.56,2.6242 0 0 1 32.057,5.002 H 32.059 A 2.56,2.6242 0 0 1 33.281,5.3535 L 54.717,18.045 A 2.56,2.6242 0 0 1 55.998,20.312 V 19.312 A 2.56,2.6242 0 0 0 54.717,17.045 L 33.281,4.3535 A 2.56,2.6242 0 0 0 32.059,4.002 Z"/>
</svg>
